;FLAVOR:Marlin
;TIME:9454
;Filament used: 5.3479m
;Layer height: 0.24
;MINX:55.214
;MINY:55.214
;MINZ:0.24
;MAXX:179.786
;MAXY:179.786
;MAXZ:54
;Generated with Cura_SteamEngine 4.6.1
M140 S65
M105
M190 S65
M104 S205
M105
M109 S205
M82 ;absolute extrusion mode
; Ender 3 Custom Start G-code
G92 E0 ; Reset Extruder
G28 ; Home all axes
G1 Z2.0 F3000 ; Move Z Axis up little to prevent scratching of Heat Bed
G1 X0.1 Y20 Z0.3 F5000.0 ; Move to start position
G1 X0.1 Y200.0 Z0.3 F1500.0 E15 ; Draw the first line
G1 X0.4 Y200.0 Z0.3 F5000.0 ; Move to side a little
G1 X0.4 Y20 Z0.3 F1500.0 E30 ; Draw the second line
G92 E0 ; Reset Extruder
G1 Z2.0 F3000 ; Move Z Axis up little to prevent scratching of Heat Bed
G1 X5 Y20 Z0.3 F5000.0 ; Move over to prevent blob squish
G92 E0
G92 E0
G1 F1500 E-6
;LAYER_COUNT:225
;LAYER:0
M107
M204 S500
M205 X20 Y20
G0 F7500 X84.712 Y64.808 Z0.24
;TYPE:SKIRT
G1 F1500 E0
G1 X85.298 Y64.279 E0.03151
G1 X85.934 Y63.811 E0.06302
G1 X86.614 Y63.41 E0.09453
G1 X87.331 Y63.08 E0.12604
G1 X88.099 Y62.818 E0.15842
G1 X89.049 Y62.549 E0.19783
G1 X115.453 Y55.473 E1.28886
G1 X116.225 Y55.307 E1.32037
G1 X117.01 Y55.221 E1.35189
G1 X117.8 Y55.214 E1.38342
G1 X118.586 Y55.287 E1.41493
G1 X119.368 Y55.441 E1.44674
G1 X120.214 Y55.653 E1.48155
G1 X120.337 Y55.685 E1.48662
G1 X146.743 Y62.76 E2.57772
G1 X147.494 Y63.002 E2.60921
G1 X148.217 Y63.32 E2.64073
G1 X148.904 Y63.709 E2.67224
G1 X149.549 Y64.165 E2.70377
G1 X150.237 Y64.776 E2.7405
G1 X170.192 Y84.712 E3.86631
G1 X170.721 Y85.298 E3.89781
G1 X171.189 Y85.934 E3.92933
G1 X171.59 Y86.614 E3.96084
G1 X171.92 Y87.331 E3.99234
G1 X172.212 Y88.207 E4.02919
G1 X179.526 Y115.448 E5.15495
G1 X179.692 Y116.22 E5.18647
G1 X179.779 Y117.005 E5.21799
G1 X179.786 Y117.795 E5.24952
G1 X179.714 Y118.581 E5.28102
G1 X179.528 Y119.486 E5.3179
G1 X172.241 Y146.739 E6.44384
G1 X171.999 Y147.49 E6.47533
G1 X171.682 Y148.214 E6.50687
G1 X171.293 Y148.901 E6.53838
G1 X170.837 Y149.546 E6.56991
G1 X170.224 Y150.237 E6.60678
G1 X150.288 Y170.192 E7.73259
G1 X149.702 Y170.721 E7.7641
G1 X149.066 Y171.189 E7.79561
G1 X148.386 Y171.59 E7.82712
G1 X147.669 Y171.92 E7.85862
G1 X146.901 Y172.182 E7.89101
G1 X145.951 Y172.451 E7.93042
G1 X119.547 Y179.527 E9.02144
G1 X118.775 Y179.693 E9.05296
G1 X117.99 Y179.779 E9.08448
G1 X117.2 Y179.786 E9.11601
G1 X116.414 Y179.713 E9.14752
G1 X115.632 Y179.559 E9.17933
G1 X114.663 Y179.315 E9.21921
G1 X88.257 Y172.24 E10.3103
G1 X87.506 Y171.998 E10.3418
G1 X86.783 Y171.68 E10.37332
G1 X86.096 Y171.291 E10.40483
G1 X85.451 Y170.835 E10.43636
G1 X84.763 Y170.224 E10.47308
G1 X64.808 Y150.288 E11.59889
G1 X64.279 Y149.702 E11.6304
G1 X63.811 Y149.066 E11.66192
G1 X63.41 Y148.386 E11.69343
G1 X63.08 Y147.669 E11.72493
G1 X62.788 Y146.793 E11.76178
G1 X55.474 Y119.552 E12.88754
G1 X55.308 Y118.78 E12.91905
G1 X55.221 Y117.995 E12.95058
G1 X55.214 Y117.205 E12.98211
G1 X55.286 Y116.419 E13.01361
G1 X55.472 Y115.514 E13.05049
G1 X62.759 Y88.261 E14.17642
G1 X63.001 Y87.51 E14.20792
G1 X63.318 Y86.786 E14.23946
G1 X63.707 Y86.099 E14.27097
G1 X64.163 Y85.454 E14.3025
G1 X64.776 Y84.763 E14.33936
G1 X84.242 Y65.278 E15.43865
G0 F1350 X84.712 Y64.808
G0 F7500 X84.995 Y65.091
G1 F1500 X85.566 Y64.576 E15.46934
G1 X86.188 Y64.123 E15.50005
G1 X86.853 Y63.737 E15.53074
G1 X87.555 Y63.422 E15.56145
G1 X88.208 Y63.203 E15.58894
G1 X89.152 Y62.935 E15.6281
G1 X115.556 Y55.859 E16.71913
G1 X116.309 Y55.699 E16.74985
G1 X117.074 Y55.618 E16.78056
G1 X117.843 Y55.616 E16.81125
G1 X118.608 Y55.695 E16.84194
G1 X119.271 Y55.829 E16.86894
G1 X120.117 Y56.041 E16.90375
G1 X120.233 Y56.071 E16.90853
G1 X146.639 Y63.146 E17.99963
G1 X147.371 Y63.384 E18.03035
G1 X148.074 Y63.696 E18.06105
G1 X148.741 Y64.079 E18.09174
G1 X149.364 Y64.529 E18.12242
G1 X149.954 Y65.059 E18.15407
G1 X169.909 Y84.995 E19.27988
G1 X170.424 Y85.566 E19.31057
G1 X170.877 Y86.188 E19.34128
G1 X171.263 Y86.853 E19.37197
G1 X171.578 Y87.555 E19.40268
G1 X171.826 Y88.311 E19.43444
G1 X179.14 Y115.552 E20.56019
G1 X179.3 Y116.304 E20.59088
G1 X179.382 Y117.069 E20.62159
G1 X179.384 Y117.838 E20.65228
G1 X179.306 Y118.603 E20.68297
G1 X179.142 Y119.382 E20.71474
G1 X171.855 Y146.635 E21.84068
G1 X171.618 Y147.367 E21.87139
G1 X171.306 Y148.07 E21.90209
G1 X170.923 Y148.737 E21.93278
G1 X170.473 Y149.361 E21.96349
G1 X169.941 Y149.954 E21.99529
G1 X150.005 Y169.909 E23.1211
G1 X149.434 Y170.424 E23.15179
G1 X148.812 Y170.877 E23.1825
G1 X148.147 Y171.263 E23.21319
G1 X147.445 Y171.578 E23.2439
G1 X146.792 Y171.797 E23.27139
G1 X145.848 Y172.065 E23.31055
G1 X119.444 Y179.141 E24.40158
G1 X118.691 Y179.301 E24.4323
G1 X117.926 Y179.382 E24.46301
G1 X117.157 Y179.384 E24.4937
G1 X116.392 Y179.305 E24.5244
G1 X115.729 Y179.171 E24.55139
G1 X114.767 Y178.929 E24.59098
G1 X88.361 Y171.854 E25.68208
G1 X87.629 Y171.616 E25.7128
G1 X86.926 Y171.304 E25.7435
G1 X86.259 Y170.921 E25.7742
G1 X85.636 Y170.471 E25.80487
G1 X85.046 Y169.941 E25.83652
G1 X65.091 Y150.005 E26.96233
G1 X64.576 Y149.434 E26.99302
G1 X64.123 Y148.812 E27.02373
G1 X63.737 Y148.147 E27.05442
G1 X63.422 Y147.445 E27.08513
G1 X63.174 Y146.689 E27.11689
G1 X55.86 Y119.448 E28.24264
G1 X55.7 Y118.696 E28.27333
G1 X55.618 Y117.931 E28.30404
G1 X55.616 Y117.162 E28.33473
G1 X55.694 Y116.397 E28.36542
G1 X55.858 Y115.618 E28.39719
G1 X63.145 Y88.365 E29.52313
G1 X63.382 Y87.633 E29.55384
G1 X63.694 Y86.93 E29.58454
G1 X64.077 Y86.263 E29.61524
G1 X64.527 Y85.639 E29.64594
G1 X65.059 Y85.046 E29.67774
G1 X84.525 Y65.561 E30.77702
G0 F1350 X84.995 Y65.091
G0 F7500 X85.278 Y65.374
G1 F1500 X85.834 Y64.873 E30.80689
G1 X86.441 Y64.435 E30.83677
G1 X87.09 Y64.065 E30.86658
G1 X87.776 Y63.765 E30.89647
G1 X88.318 Y63.587 E30.91924
G1 X89.256 Y63.322 E30.95814
G1 X115.66 Y56.246 E32.04917
G1 X116.392 Y56.091 E32.07903
G1 X117.136 Y56.015 E32.10888
G1 X117.884 Y56.019 E32.13873
G1 X118.628 Y56.103 E32.16862
G1 X119.174 Y56.217 E32.19088
G1 X120.13 Y56.457 E32.23022
G1 X146.536 Y63.532 E33.32131
G1 X147.247 Y63.764 E33.35116
G1 X147.929 Y64.071 E33.38101
G1 X148.575 Y64.449 E33.41089
G1 X149.177 Y64.893 E33.44074
G1 X149.671 Y65.342 E33.46738
G1 X169.626 Y85.278 E34.5932
G1 X170.127 Y85.834 E34.62307
G1 X170.565 Y86.441 E34.65294
G1 X170.935 Y87.09 E34.68276
G1 X171.235 Y87.776 E34.71264
G1 X171.44 Y88.415 E34.73943
G1 X178.754 Y115.656 E35.86518
G1 X178.909 Y116.388 E35.89504
G1 X178.985 Y117.132 E35.92489
G1 X178.981 Y117.88 E35.95475
G1 X178.898 Y118.623 E35.98459
G1 X178.755 Y119.279 E36.01138
G1 X171.468 Y146.532 E37.13732
G1 X171.237 Y147.243 E37.16716
G1 X170.931 Y147.926 E37.19703
G1 X170.553 Y148.572 E37.2269
G1 X170.109 Y149.174 E37.25676
G1 X169.658 Y149.671 E37.28354
G1 X149.722 Y169.626 E38.40935
G1 X149.166 Y170.127 E38.43923
G1 X148.559 Y170.565 E38.4691
G1 X147.91 Y170.935 E38.49892
G1 X147.224 Y171.235 E38.5288
G1 X146.682 Y171.413 E38.55157
G1 X145.744 Y171.678 E38.59047
G1 X119.34 Y178.754 E39.6815
G1 X118.608 Y178.909 E39.71136
G1 X117.864 Y178.985 E39.74121
G1 X117.116 Y178.981 E39.77107
G1 X116.372 Y178.897 E39.80095
G1 X115.826 Y178.783 E39.82321
G1 X114.87 Y178.543 E39.86255
G1 X88.464 Y171.468 E40.95365
G1 X87.753 Y171.236 E40.9835
G1 X87.071 Y170.929 E41.01335
G1 X86.425 Y170.551 E41.04322
G1 X85.823 Y170.107 E41.07308
G1 X85.329 Y169.658 E41.09972
G1 X65.374 Y149.722 E42.22553
G1 X64.873 Y149.166 E42.2554
G1 X64.435 Y148.559 E42.28528
G1 X64.065 Y147.91 E42.31509
G1 X63.765 Y147.224 E42.34498
G1 X63.56 Y146.585 E42.37176
G1 X56.246 Y119.344 E43.49752
G1 X56.091 Y118.612 E43.52738
G1 X56.015 Y117.868 E43.55723
G1 X56.019 Y117.12 E43.58708
G1 X56.102 Y116.377 E43.61692
G1 X56.245 Y115.721 E43.64372
G1 X63.532 Y88.468 E44.76966
G1 X63.763 Y87.757 E44.7995
G1 X64.069 Y87.074 E44.82937
G1 X64.447 Y86.428 E44.85924
G1 X64.891 Y85.826 E44.88909
G1 X65.342 Y85.329 E44.91588
G1 X84.808 Y65.844 E46.01516
G0 F1350 X85.278 Y65.374
G0 F7500 X85.561 Y65.656
G1 F1500 X86.102 Y65.171 E46.04416
G1 X86.693 Y64.749 E46.07315
G1 X87.326 Y64.394 E46.10211
G1 X87.995 Y64.111 E46.1311
G1 X88.427 Y63.972 E46.14922
G1 X89.36 Y63.708 E46.18792
G1 X115.764 Y56.632 E47.27894
G1 X116.474 Y56.483 E47.3079
G1 X117.197 Y56.413 E47.33689
G1 X117.924 Y56.422 E47.36591
G1 X118.645 Y56.512 E47.39491
G1 X119.076 Y56.605 E47.41251
G1 X120.026 Y56.844 E47.4516
G1 X146.432 Y63.919 E48.5427
G1 X147.122 Y64.145 E48.57168
G1 X147.783 Y64.446 E48.60067
G1 X148.408 Y64.818 E48.62969
G1 X148.987 Y65.256 E48.65867
G1 X149.389 Y65.625 E48.68045
G1 X169.344 Y85.561 E49.80626
G1 X169.829 Y86.102 E49.83526
G1 X170.251 Y86.693 E49.86424
G1 X170.606 Y87.326 E49.89321
G1 X170.889 Y87.995 E49.9222
G1 X171.053 Y88.519 E49.94412
G1 X178.367 Y115.76 E51.06987
G1 X178.517 Y116.47 E51.09883
G1 X178.587 Y117.193 E51.12783
G1 X178.578 Y117.92 E51.15684
G1 X178.489 Y118.64 E51.1858
G1 X178.369 Y119.176 E51.20772
G1 X171.082 Y146.429 E52.33366
G1 X170.856 Y147.119 E52.36264
G1 X170.556 Y147.78 E52.39161
G1 X170.184 Y148.405 E52.42064
G1 X169.747 Y148.984 E52.44959
G1 X169.375 Y149.389 E52.47154
G1 X149.439 Y169.344 E53.59735
G1 X148.898 Y169.829 E53.62635
G1 X148.307 Y170.251 E53.65533
G1 X147.674 Y170.606 E53.6843
G1 X147.005 Y170.889 E53.71329
G1 X146.573 Y171.028 E53.73141
G1 X145.64 Y171.292 E53.77011
G1 X119.236 Y178.368 E54.86113
G1 X118.526 Y178.517 E54.89009
G1 X117.803 Y178.587 E54.91908
G1 X117.076 Y178.578 E54.9481
G1 X116.355 Y178.488 E54.9771
G1 X115.924 Y178.395 E54.9947
G1 X114.974 Y178.156 E55.03379
G1 X88.568 Y171.081 E56.12489
G1 X87.878 Y170.855 E56.15387
G1 X87.217 Y170.554 E56.18285
G1 X86.592 Y170.182 E56.21188
G1 X86.013 Y169.744 E56.24086
G1 X85.611 Y169.375 E56.26264
G1 X65.656 Y149.439 E57.38845
G1 X65.171 Y148.898 E57.41745
G1 X64.749 Y148.307 E57.44643
G1 X64.394 Y147.674 E57.4754
G1 X64.111 Y147.005 E57.50439
G1 X63.947 Y146.481 E57.52631
G1 X56.633 Y119.24 E58.65206
G1 X56.483 Y118.53 E58.68102
G1 X56.413 Y117.807 E58.71001
G1 X56.422 Y117.08 E58.73903
G1 X56.511 Y116.36 E58.76799
G1 X56.631 Y115.824 E58.78991
G1 X63.918 Y88.571 E59.91585
G1 X64.144 Y87.881 E59.94483
G1 X64.444 Y87.22 E59.9738
G1 X64.816 Y86.595 E60.00283
G1 X65.253 Y86.016 E60.03178
G1 X65.625 Y85.611 E60.05373
G1 X85.091 Y66.126 E61.15301
G0 F1350 X85.561 Y65.656
G0 F7500 X85.844 Y65.939
G1 F1500 X86.369 Y65.47 E61.18111
G1 X86.944 Y65.064 E61.2092
G1 X87.561 Y64.725 E61.2373
G1 X88.536 Y64.357 E61.27889
G1 X89.463 Y64.094 E61.31735
G1 X115.867 Y57.018 E62.40838
G1 X116.556 Y56.875 E62.43647
G1 X117.257 Y56.811 E62.46456
G1 X117.961 Y56.826 E62.49267
G1 X118.979 Y56.993 E62.53384
G1 X119.825 Y57.205 E62.56865
G1 X119.923 Y57.23 E62.57269
G1 X146.329 Y64.305 E63.66378
G1 X146.997 Y64.526 E63.69186
G1 X147.636 Y64.821 E63.71995
G1 X148.238 Y65.186 E63.74805
G1 X148.795 Y65.617 E63.77616
G1 X149.106 Y65.908 E63.79316
G1 X169.061 Y85.844 E64.91897
G1 X169.53 Y86.369 E64.94707
G1 X169.936 Y86.944 E64.97516
G1 X170.275 Y87.561 E65.00326
G1 X170.542 Y88.212 E65.03134
G1 X170.667 Y88.622 E65.04845
G1 X177.981 Y115.863 E66.1742
G1 X178.125 Y116.552 E66.2023
G1 X178.189 Y117.253 E66.23039
G1 X178.174 Y117.957 E66.2585
G1 X178.079 Y118.655 E66.28661
G1 X177.983 Y119.073 E66.30373
G1 X170.696 Y146.326 E67.42967
G1 X170.475 Y146.994 E67.45775
G1 X170.181 Y147.634 E67.48586
G1 X169.816 Y148.235 E67.51392
G1 X169.385 Y148.792 E67.54203
G1 X169.092 Y149.106 E67.55918
G1 X149.156 Y169.061 E68.68499
G1 X148.631 Y169.53 E68.71308
G1 X148.056 Y169.936 E68.74118
G1 X147.439 Y170.275 E68.76927
G1 X146.464 Y170.643 E68.81087
G1 X145.537 Y170.906 E68.84933
G1 X119.133 Y177.982 E69.94035
G1 X118.444 Y178.125 E69.96844
G1 X117.743 Y178.189 E69.99653
G1 X117.039 Y178.174 E70.02464
G1 X116.021 Y178.007 E70.06581
G1 X115.077 Y177.77 E70.10466
G1 X88.671 Y170.695 E71.19575
G1 X88.003 Y170.474 E71.22384
G1 X87.364 Y170.179 E71.25193
G1 X86.762 Y169.814 E71.28003
G1 X86.205 Y169.383 E71.30813
G1 X85.894 Y169.092 E71.32513
G1 X65.939 Y149.156 E72.45094
G1 X65.47 Y148.631 E72.47904
G1 X65.064 Y148.056 E72.50713
G1 X64.725 Y147.439 E72.53523
G1 X64.458 Y146.788 E72.56332
G1 X64.333 Y146.378 E72.58042
G1 X57.019 Y119.137 E73.70618
G1 X56.875 Y118.448 E73.73427
G1 X56.811 Y117.747 E73.76237
G1 X56.826 Y117.043 E73.79047
G1 X56.921 Y116.345 E73.81859
G1 X57.017 Y115.927 E73.8357
G1 X64.304 Y88.674 E74.96164
G1 X64.525 Y88.006 E74.98972
G1 X64.819 Y87.366 E75.01783
G1 X65.184 Y86.765 E75.0459
G1 X65.615 Y86.208 E75.07401
G1 X65.908 Y85.894 E75.09115
G1 X85.374 Y66.409 E76.19043
G0 F1350 X85.844 Y65.939
G0 F7500 X86.127 Y66.222
G1 F1500 X86.635 Y65.769 E76.2176
G1 X87.194 Y65.379 E76.2448
G1 X87.794 Y65.057 E76.27198
G1 X88.645 Y64.742 E76.3082
G1 X89.567 Y64.481 E76.34644
G1 X115.971 Y57.405 E77.43747
G1 X116.638 Y57.267 E77.46465
G1 X117.316 Y57.209 E77.49181
G1 X117.996 Y57.231 E77.51897
G1 X118.882 Y57.381 E77.55483
G1 X119.728 Y57.593 E77.58964
G1 X119.819 Y57.617 E77.5934
G1 X146.225 Y64.692 E78.68449
G1 X146.871 Y64.906 E78.71165
G1 X147.488 Y65.195 E78.73885
G1 X148.066 Y65.554 E78.766
G1 X148.823 Y66.191 E78.80549
G1 X168.778 Y86.127 E79.9313
G1 X169.231 Y86.635 E79.95847
G1 X169.621 Y87.194 E79.98567
G1 X169.943 Y87.794 E80.01285
G1 X170.281 Y88.726 E80.05242
G1 X177.595 Y115.967 E81.17817
G1 X177.732 Y116.634 E81.20535
G1 X177.791 Y117.312 E81.23251
G1 X177.769 Y117.993 E81.25971
G1 X177.596 Y118.969 E81.29927
G1 X170.309 Y146.222 E82.42521
G1 X170.095 Y146.869 E82.45241
G1 X169.807 Y147.485 E82.47955
G1 X169.448 Y148.064 E82.50674
G1 X168.809 Y148.823 E82.54634
G1 X148.873 Y168.778 E83.67215
G1 X148.365 Y169.231 E83.69931
G1 X147.806 Y169.621 E83.72652
G1 X147.206 Y169.943 E83.75369
G1 X146.355 Y170.258 E83.78991
G1 X145.433 Y170.519 E83.82816
G1 X119.029 Y177.595 E84.91918
G1 X118.362 Y177.733 E84.94637
G1 X117.684 Y177.791 E84.97353
G1 X117.004 Y177.769 E85.00068
G1 X116.118 Y177.619 E85.03655
G1 X115.181 Y177.383 E85.07511
G1 X88.775 Y170.308 E86.16621
G1 X88.129 Y170.094 E86.19337
G1 X87.512 Y169.805 E86.22056
G1 X86.934 Y169.446 E86.24772
G1 X86.177 Y168.809 E86.28721
G1 X66.222 Y148.873 E87.41302
G1 X65.769 Y148.365 E87.44018
G1 X65.379 Y147.806 E87.46739
G1 X65.057 Y147.206 E87.49456
G1 X64.719 Y146.274 E87.53413
G1 X57.405 Y119.033 E88.65989
G1 X57.268 Y118.366 E88.68706
G1 X57.209 Y117.688 E88.71423
G1 X57.231 Y117.007 E88.74142
G1 X57.404 Y116.031 E88.78098
G1 X64.691 Y88.778 E89.90692
G1 X64.905 Y88.131 E89.93412
G1 X65.193 Y87.515 E89.96126
G1 X65.552 Y86.936 E89.98845
G1 X66.191 Y86.177 E90.02805
G1 X85.657 Y66.692 E91.12733
G0 F1350 X86.127 Y66.222
G0 F7500 X86.41 Y66.504
G1 F1500 X86.902 Y66.069 E91.15354
G1 X87.443 Y65.696 E91.17977
G1 X88.025 Y65.392 E91.20598
G1 X88.755 Y65.126 E91.23699
G1 X89.67 Y64.867 E91.27494
G1 X116.074 Y57.791 E92.36597
G1 X116.718 Y57.66 E92.3922
G1 X117.373 Y57.608 E92.41842
G1 X118.029 Y57.636 E92.44463
G1 X118.785 Y57.769 E92.47527
G1 X119.631 Y57.981 E92.51008
G1 X119.716 Y58.003 E92.51358
G1 X146.122 Y65.078 E93.60468
G1 X146.745 Y65.286 E93.63089
G1 X147.338 Y65.569 E93.65711
G1 X147.892 Y65.921 E93.68331
G1 X148.541 Y66.474 E93.71734
G1 X168.496 Y86.41 E94.84315
G1 X168.931 Y86.902 E94.86936
G1 X169.304 Y87.443 E94.89559
G1 X169.608 Y88.025 E94.9218
G1 X169.894 Y88.83 E94.9559
G1 X177.208 Y116.071 E96.08165
G1 X177.34 Y116.714 E96.10785
G1 X177.392 Y117.369 E96.13407
G1 X177.364 Y118.026 E96.16032
G1 X177.21 Y118.866 E96.1944
G1 X169.923 Y146.119 E97.32034
G1 X169.715 Y146.742 E97.34656
G1 X169.433 Y147.335 E97.37276
G1 X169.081 Y147.89 E97.399
G1 X168.526 Y148.541 E97.43314
G1 X148.59 Y168.496 E98.55895
G1 X148.098 Y168.931 E98.58516
G1 X147.557 Y169.304 E98.61139
G1 X146.975 Y169.608 E98.63759
G1 X146.245 Y169.874 E98.6686
G1 X145.33 Y170.133 E98.70656
G1 X118.926 Y177.209 E99.79759
G1 X118.282 Y177.34 E99.82382
G1 X117.627 Y177.392 E99.85004
G1 X116.971 Y177.364 E99.87625
G1 X116.215 Y177.231 E99.90688
G1 X115.284 Y176.997 E99.9452
G1 X88.878 Y169.922 E101.03629
G1 X88.255 Y169.714 E101.06251
G1 X87.662 Y169.431 E101.08873
G1 X87.108 Y169.079 E101.11493
G1 X86.459 Y168.526 E101.14896
G1 X66.504 Y148.59 E102.27477
